icons/communication/message-x-24.svg

<svg width="24" height="24" viewBox="0 0 24 24" fill="none" xmlns="http://www.w3.org/2000/svg">
<path d="M10.2803 8.21967C9.98744 7.92678 9.51256 7.92678 9.21967 8.21967C8.92678 8.51256 8.92678 8.98744 9.21967 9.28033L11.4393 11.5L9.21967 13.7197C8.92678 14.0126 8.92678 14.4874 9.21967 14.7803C9.51256 15.0732 9.98744 15.0732 10.2803 14.7803L12.5 12.5607L14.7197 14.7803C15.0126 15.0732 15.4874 15.0732 15.7803 14.7803C16.0732 14.4874 16.0732 14.0126 15.7803 13.7197L13.5607 11.5L15.7803 9.28033C16.0732 8.98744 16.0732 8.51256 15.7803 8.21967C15.4874 7.92678 15.0126 7.92678 14.7197 8.21967L12.5 10.4393L10.2803 8.21967Z" fill="black"/>
<path fill-rule="evenodd" clip-rule="evenodd" d="M3.00001 11.5C3.00001 12.8408 3.27821 14.1184 3.78057 15.2767L2.08244 19.3131C1.7836 20.0234 2.36666 20.7906 3.13105 20.6928L8.3135 20.03C9.57728 20.6513 10.9989 21 12.5 21C17.7467 21 22 16.7467 22 11.5C22 6.25329 17.7467 2 12.5 2C7.2533 2 3.00001 6.25329 3.00001 11.5ZM12.5 3.5C8.08173 3.5 4.50001 7.08172 4.50001 11.5C4.50001 12.7385 4.78091 13.9092 5.28177 14.9539C5.39825 15.1969 5.37227 15.4713 5.23708 15.6828L3.80161 19.0948L8.34898 18.5132C8.48487 18.4958 8.61691 18.516 8.73469 18.5656C8.75906 18.5752 8.78317 18.5862 8.80691 18.5986C9.91092 19.1742 11.1663 19.5 12.5 19.5C16.9183 19.5 20.5 15.9183 20.5 11.5C20.5 7.08172 16.9183 3.5 12.5 3.5Z" fill="black"/>
</svg>

<svg xmlns="http://www.w3.org/2000/svg" width="24" height="24"><path d="M10.28 8.22a.75.75 0 10-1.06 1.06l2.22 2.22-2.22 2.22a.75.75 0 101.06 1.06l2.22-2.22 2.22 2.22a.75.75 0 101.06-1.06l-2.22-2.22 2.22-2.22a.75.75 0 00-1.06-1.06l-2.22 2.22-2.22-2.22z"/><path fill-rule="evenodd" d="M3 11.5c0 1.34.278 2.618.78 3.777l-1.698 4.036a1 1 0 001.05 1.38l5.181-.663A9.5 9.5 0 103 11.5zm9.5-8a8 8 0 00-7.218 11.454.75.75 0 01-.045.729l-1.435 3.412 4.547-.582a.746.746 0 01.458.086A8 8 0 1012.5 3.5z"/></svg>
